icons/lines/ticket-discount.svg

<svg xmlns="http://www.w3.org/2000/svg" width="24" height="24" viewBox="0 0 24 24" fill="none" stroke="currentColor" stroke-width="2" stroke-linecap="round" stroke-linejoin="round">
  <path d="M14.995 14.75h.01" />
  <path d="M22 15a1 1 0 0 1 0-5V9c0-4-1-5-5-5H7C3 4 2 5 2 9v.5a1 1 0 0 1 0 5v.5c0 4 1 5 5 5h10c4 0 5-1 5-5" />
  <path d="M8.995 9.25h.01" />
  <path d="m9 14.75 6-6" />
</svg>

<svg xmlns="http://www.w3.org/2000/svg" width="24" height="24" viewBox="0 0 24 24" fill="none" stroke="currentColor" stroke-width="2" stroke-linecap="round" stroke-linejoin="round" >
  <path d="M19.5 12.5C19.5 11.12 20.62 10 22 10V9C22 5 21 4 17 4H7C3 4 2 5 2 9V9.5C3.38 9.5 4.5 10.62 4.5 12C4.5 13.38 3.38 14.5 2 14.5V15C2 19 3 20 7 20H17C21 20 22 19 22 15C20.62 15 19.5 13.88 19.5 12.5Z"/>
  <path d="M9 14.75L15 8.75"/>
  <path d="M14.9945 14.75H15.0035"/>
  <path d="M8.99451 9.25H9.00349"/>
  </svg>
